X:419
T: JA LUSTIG BIN ICH
N: F0769
O: Europa, Mitteleuropa, Deutschland
R: Geselligkeits -, Trink - Lied
M: 6/8
L: 1/16
K: A
E2 | A4E2c4A2 | B4E2d4
B2 | c4A2e2d2c2 | B6z4
Bc | d4B2G4E2 | e4c2A4
A2 | d3ed2c4A2 | d4e2f4
d2 | c3BA2e4e2 | e4
A2e6- | e3dc2d3cB2 | A6z4

@@@ Tune index: 5850
